svg/icmp.svg

<?xml version="1.0" encoding="UTF-8"?>
<svg xmlns="http://www.w3.org/2000/svg" xmlns:xlink="http://www.w3.org/1999/xlink" width="32" height="32" viewBox="0 0 32 32">
<path fill-rule="nonzero" fill="rgb(20.392157%, 59.607846%, 85.882354%)" fill-opacity="1" d="M 16 2.050781 C 11.023438 2.054688 6.425781 4.714844 3.9375 9.023438 L 6.714844 9.023438 C 7.9375 7.402344 9.558594 6.125 11.421875 5.316406 C 10.765625 6.484375 10.257812 7.730469 9.914062 9.023438 L 12.363281 9.023438 C 13.28125 6.167969 14.691406 4.378906 16 4.378906 C 17.3125 4.378906 18.714844 6.167969 19.636719 9.023438 L 22.085938 9.023438 C 21.746094 7.730469 21.238281 6.484375 20.578125 5.316406 C 22.441406 6.125 24.066406 7.402344 25.289062 9.023438 L 28.066406 9.023438 C 25.574219 4.714844 20.976562 2.058594 16 2.050781 M 3.9375 22.980469 C 6.425781 27.292969 11.023438 29.949219 16.003906 29.949219 C 20.980469 29.949219 25.582031 27.292969 28.066406 22.980469 L 25.289062 22.980469 C 24.066406 24.601562 22.445312 25.878906 20.578125 26.683594 C 21.238281 25.519531 21.746094 24.273438 22.085938 22.980469 L 19.636719 22.980469 C 18.71875 25.835938 17.316406 27.625 16 27.625 C 14.683594 27.625 13.28125 25.835938 12.367188 22.976562 L 9.914062 22.976562 C 10.253906 24.273438 10.761719 25.519531 11.421875 26.683594 C 9.558594 25.878906 7.933594 24.601562 6.714844 22.976562 Z M 4.425781 12.328125 L 2.441406 12.328125 L 2.441406 10.808594 L 4.425781 10.808594 Z M 2.441406 13.082031 L 4.425781 13.082031 L 4.425781 19.15625 L 2.441406 19.15625 Z M 9.785156 15.3125 C 9.757812 14.800781 9.324219 14.410156 8.816406 14.433594 C 7.707031 14.433594 7.527344 15.382812 7.527344 16.222656 C 7.527344 17.003906 7.867188 17.8125 8.710938 17.8125 C 9.414062 17.8125 9.75 17.429688 9.84375 16.773438 L 11.773438 16.773438 C 11.585938 18.410156 10.347656 19.332031 8.722656 19.332031 C 6.898438 19.332031 5.542969 18.09375 5.542969 16.222656 C 5.542969 14.292969 6.769531 12.914062 8.722656 12.914062 C 10.242188 12.914062 11.5625 13.71875 11.714844 15.3125 Z M 12.765625 13.082031 L 14.691406 13.082031 L 14.691406 13.910156 L 14.714844 13.910156 C 15.074219 13.289062 15.738281 12.90625 16.457031 12.902344 C 17.214844 12.902344 17.894531 13.148438 18.222656 13.886719 C 18.644531 13.253906 19.363281 12.882812 20.125 12.914062 C 22.054688 12.914062 22.265625 14.375 22.265625 15.53125 L 22.265625 19.152344 L 20.277344 19.152344 L 20.277344 15.589844 C 20.277344 14.9375 19.960938 14.550781 19.445312 14.550781 C 18.59375 14.550781 18.511719 15.207031 18.511719 16.1875 L 18.511719 19.15625 L 16.519531 19.15625 L 16.519531 15.707031 C 16.519531 14.996094 16.320312 14.550781 15.773438 14.550781 C 15.058594 14.550781 14.753906 14.96875 14.753906 16.199219 L 14.753906 19.15625 L 12.765625 19.15625 Z M 23.59375 13.082031 L 25.488281 13.082031 L 25.488281 13.78125 L 25.511719 13.78125 C 25.875 13.214844 26.511719 12.878906 27.183594 12.90625 C 29.089844 12.90625 29.898438 14.53125 29.898438 16.25 C 29.898438 17.828125 29.054688 19.324219 27.335938 19.324219 C 26.65625 19.351562 26.007812 19.042969 25.605469 18.496094 L 25.582031 18.496094 L 25.582031 21.183594 L 23.59375 21.183594 Z M 25.511719 16.050781 C 25.511719 17.113281 25.816406 17.804688 26.71875 17.804688 C 27.621094 17.804688 27.910156 16.878906 27.910156 16.050781 C 27.910156 15.277344 27.617188 14.425781 26.730469 14.425781 C 26.203125 14.433594 25.511719 14.792969 25.511719 16.058594 Z M 25.511719 16.050781 "/>
</svg>

<svg role="img" viewBox="0 0 32 32" xmlns="http://www.w3.org/2000/svg"><path d="M16 2.05A13.95 13.95 0 0 0 3.938 9.024h2.777a11.76 11.76 0 0 1 4.707-3.707 16 16 0 0 0-1.508 3.707h2.45C13.28 6.168 14.69 4.38 16 4.38c1.313 0 2.715 1.789 3.637 4.644h2.449a15.6 15.6 0 0 0-1.508-3.707 11.77 11.77 0 0 1 4.711 3.707h2.777A13.97 13.97 0 0 0 16 2.051M3.938 22.98a13.928 13.928 0 0 0 24.128 0H25.29a11.7 11.7 0 0 1-4.71 3.703 15.5 15.5 0 0 0 1.507-3.704h-2.45c-.917 2.856-2.32 4.645-3.636 4.645s-2.719-1.79-3.633-4.648H9.914c.34 1.296.848 2.543 1.508 3.707a11.67 11.67 0 0 1-4.707-3.707Zm.488-10.653H2.44v-1.52h1.985Zm-1.985.754h1.985v6.074H2.44Zm7.344 2.23a.93.93 0 0 0-.969-.878c-1.109 0-1.289.949-1.289 1.789 0 .78.34 1.59 1.184 1.59.703 0 1.039-.383 1.133-1.04h1.93c-.188 1.637-1.426 2.559-3.051 2.559-1.825 0-3.18-1.238-3.18-3.11 0-1.929 1.227-3.308 3.18-3.308 1.52 0 2.84.805 2.992 2.399Zm2.98-2.23h1.926v.828h.024a2.03 2.03 0 0 1 1.742-1.008c.758 0 1.438.246 1.766.985a2.18 2.18 0 0 1 1.902-.973c1.93 0 2.14 1.461 2.14 2.617v3.621h-1.988V15.59c0-.652-.316-1.04-.832-1.04-.851 0-.933.657-.933 1.637v2.97H16.52v-3.45c0-.71-.2-1.156-.747-1.156-.714 0-1.02.418-1.02 1.648v2.957h-1.987Zm10.829 0h1.894v.7h.024a1.9 1.9 0 0 1 1.672-.876c1.906 0 2.714 1.625 2.714 3.344 0 1.578-.843 3.074-2.562 3.074a2.04 2.04 0 0 1-1.73-.828h-.024v2.688h-1.988Zm1.918 2.969c0 1.062.304 1.754 1.207 1.754.902 0 1.191-.926 1.191-1.754 0-.774-.293-1.625-1.18-1.625-.527.008-1.218.367-1.218 1.633Zm0 0" fill="rgb(20.392157%, 59.607846%, 85.882354%)"/></svg>
